X: 8395
T: Cow That Ate The Blanket, The
R: jig
M: 6/8
K: Gmajor
B2A BGD|GFG GBd|efg dBG|ABA AGA|
B2A BGD|GFG GBd|ege dBA|BGF G3:|
gfg efg|fag fed|gfg edB|dBG A3|
B2A BGD|GFG GBd|ege dBA|BGF G3:|

